icons/tanstack.svg

<!--
  - The MIT License (MIT)
  -
  - Copyright (c) 2015-2024 Elior "Mallowigi" Boukhobza
  -
  - Permission is hereby granted, free of charge, to any person obtaining a copy
  - of this software and associated documentation files (the "Software"), to deal
  - in the Software without restriction, including without limitation the rights
  - to use, copy, modify, merge, publish, distribute, sublicense, and/or sell
  - copies of the Software, and to permit persons to whom the Software is
  - furnished to do so, subject to the following conditions:
  -
  - The above copyright notice and this permission notice shall be included in all
  - copies or substantial portions of the Software.
  -
  - THE SOFTWARE IS PROVIDED "AS IS", WITHOUT WARRANTY OF ANY KIND, EXPRESS OR
  - IMPLIED, INCLUDING BUT NOT LIMITED TO THE WARRANTIES OF MERCHANTABILITY,
  - FITNESS FOR A PARTICULAR PURPOSE AND NONINFRINGEMENT. IN NO EVENT SHALL THE
  - AUTHORS OR COPYRIGHT HOLDERS BE LIABLE FOR ANY CLAIM, DAMAGES OR OTHER
  - LIABILITY, WHETHER IN AN ACTION OF CONTRACT, TORT OR OTHERWISE, ARISING FROM,
  - OUT OF OR IN CONNECTION WITH THE SOFTWARE OR THE USE OR OTHER DEALINGS IN THE
  - SOFTWARE.
  -
  -->
<svg  width="16px" height="16px" viewBox="0 0 24 24" fill="#66BB6A" xmlns="http://www.w3.org/2000/svg"
     data-iconColor="TanStack Router">
  <path
      d="M12.4788 8.9825C14.0648 16.5735 10.4838 21.95 10.4838 21.95H13.4763C15.3516 16.1645 14.4738 12.0648 13.975 9.98M16.1296 7.1471C16.2992 7.35658 16.4687 7.57603 16.5984 7.80545C18.3041 10.5087 17.965 13.9201 15.97 16.2244C16.8079 14.1795 16.6882 11.7655 15.4214 9.75058C15.3416 9.6209 15.2518 9.51118 15.172 9.39148C14.5835 8.56355 13.8353 7.9052 13.0174 7.41643C10.1446 8.33413 8.0698 11.0174 8.0698 14.1895C8.0698 14.9276 8.17952 15.6358 8.37902 16.2942C7.54112 15.1271 7.05235 13.7007 7.05235 12.1645C7.05235 9.8204 8.1895 7.7456 9.93512 6.44885C8.48875 6.33913 6.9526 6.65833 5.61595 7.48625C4.9975 7.89523 4.45885 8.36405 4 8.89273C4.54863 7.56605 5.49625 6.37903 6.793 5.56108C8.28925 4.62343 9.985 4.3142 11.6209 4.5536C11.2119 3.995 10.7132 3.46633 10.1147 2.9975C9.53613 2.57855 8.9077 2.2394 8.24935 2C9.68575 2.0399 11.1221 2.49875 12.3491 3.42643C12.9775 3.89525 13.4762 4.46383 13.8752 5.06233C13.975 5.06233 14.0648 5.05235 14.1645 5.05235C17.3565 5.05235 20.0598 7.15708 20.9575 10.0598C19.8403 8.48375 18.1146 7.41643 16.1296 7.1471Z"
  />
</svg>

<svg xmlns="http://www.w3.org/2000/svg" fill="#66bb6a" data-iconColor="TanStack Router" viewBox="0 0 24 24"><path d="M12.479 8.983c1.586 7.59-1.995 12.967-1.995 12.967h2.992c1.876-5.785.998-9.885.499-11.97m2.155-2.833c.17.21.339.429.468.658a7.08 7.08 0 0 1-.628 8.42 7.1 7.1 0 0 0-.549-6.474c-.08-.13-.17-.24-.249-.36a7.1 7.1 0 0 0-2.155-1.975A7.11 7.11 0 0 0 8.07 14.19c0 .738.11 1.446.309 2.104a7.06 7.06 0 0 1-1.327-4.13A7.1 7.1 0 0 1 9.935 6.45a7.2 7.2 0 0 0-4.32 1.037A8 8 0 0 0 4 8.893 7.17 7.17 0 0 1 6.793 5.56a7.1 7.1 0 0 1 4.828-1.007 8 8 0 0 0-1.506-1.557A7.7 7.7 0 0 0 8.249 2a7.1 7.1 0 0 1 4.1 1.426 6.6 6.6 0 0 1 1.526 1.636c.1 0 .19-.01.29-.01a7.11 7.11 0 0 1 6.793 5.008 7.06 7.06 0 0 0-4.828-2.913"/></svg>
